fa/svgs/regular/chart-bar.svg

<svg xmlns="http://www.w3.org/2000/svg" viewBox="0 0 512 512"><!--! Font Awesome Free 6.1.1 by @fontawesome - https://fontawesome.com License - https://fontawesome.com/license/free (Icons: CC BY 4.0, Fonts: SIL OFL 1.1, Code: MIT License) Copyright 2022 Fonticons, Inc.--><path d="M24 32c13.25 0 24 10.75 24 24v352c0 13.3 10.75 24 24 24h416c13.3 0 24 10.7 24 24s-10.7 24-24 24H72c-39.76 0-72-32.2-72-72V56c0-13.25 10.75-24 24-24zm104 104c0-13.3 10.7-24 24-24h208c13.3 0 24 10.7 24 24s-10.7 24-24 24H152c-13.3 0-24-10.7-24-24zm168 72c13.3 0 24 10.7 24 24s-10.7 24-24 24H152c-13.3 0-24-10.7-24-24s10.7-24 24-24h144zm128 96c13.3 0 24 10.7 24 24s-10.7 24-24 24H152c-13.3 0-24-10.7-24-24s10.7-24 24-24h272z"/></svg>

<svg xmlns="http://www.w3.org/2000/svg" viewBox="0 0 512 512"><!--! Font Awesome Free 6.2.1 by @fontawesome - https://fontawesome.com License - https://fontawesome.com/license/free (Icons: CC BY 4.0, Fonts: SIL OFL 1.1, Code: MIT License) Copyright 2022 Fonticons, Inc. --><path d="M24 32C37.25 32 48 42.75 48 56V408C48 421.3 58.75 432 72 432H488C501.3 432 512 442.7 512 456C512 469.3 501.3 480 488 480H72C32.24 480 0 447.8 0 408V56C0 42.75 10.75 32 24 32zM128 136C128 122.7 138.7 112 152 112H360C373.3 112 384 122.7 384 136C384 149.3 373.3 160 360 160H152C138.7 160 128 149.3 128 136zM296 208C309.3 208 320 218.7 320 232C320 245.3 309.3 256 296 256H152C138.7 256 128 245.3 128 232C128 218.7 138.7 208 152 208H296zM424 304C437.3 304 448 314.7 448 328C448 341.3 437.3 352 424 352H152C138.7 352 128 341.3 128 328C128 314.7 138.7 304 152 304H424z"/></svg>
